X:0552
T:March 3d. Regt. Dragoon Guards.
M:C
L:1/8
Q:1/2=66
I: :: ::
Z:Jack Campin * www.campin.me.uk * 2009
K:G
(3d>ef|g2B>B B2Tc2|d2G>G G2A>B|(dc).B.A (cB).A.G |A2A>A A2
(3def |g2B>B B2 c2|d2G>G G2b>a|(gf)(ed) (fe).d.^c|d2dd  d2:|
  A2  |d2A>A A2 Bc|B2B>B B2A>B|(dc).B.A (cB).A.G |d2d>d d2
(3d>ef|g2B>B B2 c2|d2G>G G2e>d|(cB).A.G (BA).G.F |G2GG  G2:|

